$: s("snare(5,8)").gain(0.8)
$: s("lt(1,8)").gain(0.6).lpf(800)
$: s("hh*16").gain(0.7)
$: s("drumulator_cp(2,8)").gain(0.5)
$: note("<[39 51]*4 [34 46]*4 [36 48]*4 [41 53]*4>").sound("gm_electric_bass_pick").lpf(900).gain(sine.range(0.5, 1.5).slow(4))._punchcard().color("cyan white cyan white")
